build/images/check.svg

<svg width="22" height="22" viewBox="0 0 22 22" fill="#fff" xmlns="http://www.w3.org/2000/svg">
<path d="M18.975 7.05833L8.89167 17.1417C8.70833 17.325 8.525 17.4167 8.25 17.4167C7.975 17.4167 7.79167 17.325 7.60833 17.1417L3.025 12.5583C2.65833 12.1917 2.65833 11.6417 3.025 11.275C3.39167 10.9083 3.94167 10.9083 4.30833 11.275L8.25 15.2167L17.6917 5.775C18.0583 5.40833 18.6083 5.40833 18.975 5.775C19.3417 6.14167 19.3417 6.69167 18.975 7.05833Z" />
<path d="M18.975 7.05833L8.89167 17.1417C8.70833 17.325 8.525 17.4167 8.25 17.4167C7.975 17.4167 7.79167 17.325 7.60833 17.1417L3.025 12.5583C2.65833 12.1917 2.65833 11.6417 3.025 11.275C3.39167 10.9083 3.94167 10.9083 4.30833 11.275L8.25 15.2167L17.6917 5.775C18.0583 5.40833 18.6083 5.40833 18.975 5.775C19.3417 6.14167 19.3417 6.69167 18.975 7.05833Z" />
</svg>

<svg width="22" height="22" viewBox="0 0 22 22" fill="#fff" xmlns="http://www.w3.org/2000/svg"><path d="M18.975 7.058L8.892 17.142a.832.832 0 01-.642.275.832.832 0 01-.642-.275l-4.583-4.584a.886.886 0 010-1.283.886.886 0 011.283 0l3.942 3.942 9.442-9.442a.886.886 0 011.283 0 .886.886 0 010 1.283z"/><path d="M18.975 7.058L8.892 17.142a.832.832 0 01-.642.275.832.832 0 01-.642-.275l-4.583-4.584a.886.886 0 010-1.283.886.886 0 011.283 0l3.942 3.942 9.442-9.442a.886.886 0 011.283 0 .886.886 0 010 1.283z"/></svg>
